src/assets/icons/fa/bar-chart-o.svg

<?xml version="1.0" encoding="utf-8"?>
<svg width="2048" height="1792" viewBox="0 0 2048 1792" xmlns="http://www.w3.org/2000/svg"><path d="M640 896v512h-256v-512h256zm384-512v1024h-256v-1024h256zm1024 1152v128h-2048v-1536h128v1408h1920zm-640-896v768h-256v-768h256zm384-384v1152h-256v-1152h256z"/></svg>

<svg xmlns="http://www.w3.org/2000/svg" viewBox="0 0 2048 1792"><path d="M640 896v512H384V896h256zm384-512v1024H768V384h256zm1024 1152v128H0V128h128v1408h1920zm-640-896v768h-256V640h256zm384-384v1152h-256V256h256z"/></svg>
